!!!OTL: Marien - Psalter.
!!!ARE: Europa, Mitteleuropa, Deutschland
!!!SCT: A0594
!!!TXL: @@DE
!!!YEM: Copyright 1995, estate of Helmut Schaffrath.
**kern	**text
*M4/4	*
*met(c)	*
*clefC4	*
*k[]	*
*e:phr	*
!LO:TX:a:t=phryg.	!
4ryy	.
{4E	Die
=1	=1
4A/	Schrifft
4G	die
4A/	giebt
4B	vns
=2	=2
4c	Weiß
4B	vnd
2A}	Lehr,
=3	=3
{4r	.
4c	Wie
4c	das
4c	Ma-
=4	=4
4B	-ri-
4c	-ä
4d	Pſal-
4c	-ter
=5	=5
2B	wer,
4r}	.
{4A	Da-
=6	=6
4G	-von
4A/	ich
4B	euch
4B	will
=7	=7
4E	ſin-
4E	-gen.}
4r}	.
{4E	Die
=8	=8
4A/	gött-
4G	-lich
4A/	Weisheit
4B	.
=9	=9
4c	rueff
4B	ich
2A}	an,
=10	=10
{4r	.
4c	Je-
4c	-ſum
4c	Chri-
=11	=11
4B	-ſtum
4c	ʒu
4d	eh-
4c	-ren
=12	=12
2B	ſchon,
4r}	.
{4A	So
=13	=13
4G	mag
4A/	vns
4B	nit
4B	miſ-
=14	=14
4E	-lin-
4E	-gen.}
2r	.
=15	=15
4r}	.
{4C	Ma-
4D	-ri-
4E	-a
=16	=16
4F	hat
4F	ir
4G	auſ-
4A/	-er-
=17	=17
2G	-wählt,
4r}	.
{4G	Die
=18	=18
4G	ih-
4F	-ren
4E	Pſal-
4E	-ter
=19	=19
4C	be-
4C	-ten,
2r	.
=20	=20
4r}	.
{4G	Hats
4G	in
4G	ir
=21	=21
4G	Bruderſchaft
4E	.
4A	.
4B	ge-
=22	=22
2A	-ʒehlt,
4r}	.
{4A	Und
=23	=23
4B	wills
4A	bey
4G	Gott
4G	ver-
=24	=24
4E	-tret-
4E	-ten,
2r	.
=25	=25
4r}	.
{4E	Es
4E	ſey-
4F	-en
=26	=26
4G	gleich
4A/	fraw
4G	o-
4E	-der
=27	=27
2C	Mann,
4r}	.
{4C	Wer
=28	=28
4G	ſie
4A	da-
4B	-mit
4A	thuet
=29	=29
4c	ruf-
4A	-fen
2G	an,
=30	=30
4r}	.
{4E	Den
4A	will
4B	ſie
=31	=31
4G	trew-
4E	-lich
4C	bey-
4D	-e-
=32	=32
1E;}	-ſtahn.
==	==
!!!GTL: Geistliche Volkslieder
!!!AGN: Romanze, Ballade, Lied, religioeses Lied
!! Werlins Hs. 1646 S. 3682
!!!ONB: ESAC (Essen Associative Code) Database: ALTDEU
!!!AMT: simple quadruple
!!!AIN: vox
!!!EED: Helmut Schaffrath
!!!EEV: 1.0
!!!AMD: Phrygian
!!!URL-scan: https://rosdok.uni-rostock.de/mcrviewer/recordIdentifier/rosdok_ppn738218359/iview2/phys_0776.iview2?x=-1038.517049950175&y=-1302.206396994181&scale=0.35264164471254245&rotation=0&layout=singlePageLayout&logicalDiv=log_0021
!!!ENC: Anna Maria Matuszewska
!!!EEV: 2024/22/03
*-	*-
